X:181
T:Maid behind the Bar
T:Barmaid
T:Green Mountain
R:reel
D:Stockton's Wing.
Z:id:hn-reel-96
M:C|
K:D
FAAB AFED|FAAB ABde|fBBA Bcde|f2af edBA|
FAAB AFED|FAAB ABde|fBBA BcdB|1 AFEF D2DE:|2 AFEF D3e||
|:faag fede|fdad fd~d2|efga beef|gebe gfeg|
faaf bfaf|defd e2de|fBBA BcdB|1 AFEF D3e:|2 AFEF D2DE||
